projects/flag-game/flags/Mozambique.svg

<svg viewBox="0 0 1000 667" xmlns="http://www.w3.org/2000/svg" xmlns:xlink="http://www.w3.org/1999/xlink"><clipPath id="a"><path d="m0 0h1000v666.71875h-1000zm0 0"/></clipPath><clipPath id="b"><path d="m0 437h1000v229.71875h-1000zm0 0"/></clipPath><clipPath id="c"><path d="m0 458h1000v208.71875h-1000zm0 0"/></clipPath><clipPath id="d"><path d="m0 0h438v666.71875h-438zm0 0"/></clipPath><g clip-path="url(#a)"><path d="m0 666.667969v-666.667969h1000v666.667969zm0 0" fill-rule="evenodd"/></g><path d="m0 0h1000v229.167969h-1000zm0 0" fill="#fff" fill-rule="evenodd"/><path d="m0 0h1000v208.332031h-1000zm0 0" fill="#007168" fill-rule="evenodd"/><g clip-path="url(#b)"><path d="m0 437.222656h1000v229.445313h-1000zm0 0" fill="#fff" fill-rule="evenodd"/></g><g clip-path="url(#c)"><path d="m0 458.332031h1000v208.335938h-1000zm0 0" fill="#fce100" fill-rule="evenodd"/></g><g clip-path="url(#d)"><path d="m0 0v666.667969l437.5-333.335938zm0 0" fill="#d21034" fill-rule="evenodd"/></g><path d="m227.078125 458.316406-81.28125-59.507812-81.175781 59.523437 31.484375-95.691406-81.703125-58.804687 100.738281.367187 30.679687-95.871094 30.78125 95.921875 100.660157-.445312-81.714844 58.914062zm0 0" fill="#fce100" fill-rule="evenodd"/><path d="m75.25 391.585938h58.554688c4.710937 5.285156 15.222656 7.441406 25.234374-.0625 18.355469-10.050782 53.855469.0625 53.855469.0625l6.996094-7.425782-17.046875-55.9375-6.113281-6.554687s-13.109375-7.859375-38.019531-5.238281c-24.90625 2.617187-33.644532-.875-33.644532-.875s-21.851562 2.621093-27.96875 5.679687c-.671875.542969-6.992187 6.988281-6.992187 6.988281zm0 0" fill="#fff" fill-rule="evenodd" stroke="#000" stroke-width="1.74961"/><path d="m87.050781 377.164062s55.929688-6.988281 72.097657 14.421876c-9.132813 6.25-17.171876 6.765624-25.78125.4375 1.371093-2.28125 20.097656-21.847657 67.730468-15.292969" fill="none" stroke="#000" stroke-width="1.74961"/><path d="m146.914062 321.234375-.441406 61.609375zm49.816407.875 10.484375 48.941406zm-99.058594-.773437-5.816406 25.242187zm0 0" fill-rule="evenodd"/><g stroke="#000" stroke-width="1.74961"><path d="m146.914062 321.234375-.441406 61.609375" fill="none"/><path d="m196.730469 322.109375 10.484375 48.941406" fill="none"/><path d="m97.671875 321.335938-5.816406 25.242187" fill="none"/><path d="m37.21875 398.296875 13.769531 16.144531c1.617188.960938 3.054688.902344 4.492188 0l20.402343-24.488281 8.574219-10.613281c1.328125-1.574219 1.75-3.324219 1.632813-4.898438l16.390625-14.5625c1.339843.09375 2.136719.246094 3.476562.335938-1.585937-.410156-2.746093-1.179688-1.496093-2.917969l3.671874-2.855469 2.851563 3.675782s-4.078125 5.304687-4.484375 5.304687h-4.492188l-8.574218 7.753906 3.75 3.316407 5.644531 15.460937 6.9375-4.898437-4.492187-15.921876 9.796874-10.609374-3.671874-5.714844 2.449218-3.265625s33.902344 21.34375 46.964844 15.632812c.351562.125.789062-15.222656.789062-15.222656s-35.105468-3.675781-35.917968-10.613281c-.820313-6.941406 7.753906-7.753906 7.753906-7.753906l-3.671875-5.304688.816406-2.859375 6.121094 7.75 13.878906-11.835937 81.628907 93.0625c4.457031-1.808594 5.410156-2.898438 5.71875-7.347657-.113282-.109375-80.003907-91.835937-80.003907-91.835937l6.125-6.53125c1.203125-1.355469 1.628907-1.9375 1.632813-4.078125l9.386718-8.167969c2.820313.972656 4.621094 2.664062 6.121094 4.898438l25.808594-21.875c.683594.6875 2.75 1.363281 4.148438.597656l42.671874-40.953125-46.507812 32.84375-1.632812-1.222657c0-1.359374 1.6875-1.695312 0-4.082031-1.804688-2.167969-4.488282 2.042969-4.894532 2.042969-.410156 0-6.730468-2.234375-8.113281-5.066406l-.457031 7.511718-11.839844 11.019532-8.976562-.40625-13.066407 12.652344-1.625 4.898437 2.039063 4.082031s-6.9375 6.125-6.9375 5.71875c0-.414062-1.40625-1.808594-1.46875-1.988281l5.953125-5.363281.820312-3.675782-1.988281-3.097656c-.601562.4375-8.21875 8.40625-8.625 7.589844-.683594-.765625-22.042969-24.894531-22.042969-24.894531l1.226563-4.492188-13.878906-15.097656c-5.054688-1.75-13.058594-2.046875-14.691407 8.976563-1.273437 2.589843-11.839843.40625-11.839843.40625l-5.710938 1.226562-32.25 45.714844 17.960938 21.632812 36.734374-46.535156 1.089844-13.179688 7.710938 8.617188c2.570312.332031 5.019531.359375 7.34375-.8125l21.765625 24.289062-3.621094 3.535157c1.226563 1.363281 2.066406 2.230469 3.292969 3.59375 1.21875-.820313 2.390625-1.796875 3.617187-2.617188.40625.550781 1.085938 1.578125 1.5 2.128907-1.832031.992187-3.105469 2.308593-4.933593 3.300781-2.914063-1.898438-5.734376-4.269531-5.519532-8.039063l-12.242187 10.207032-.414063 2.039062-36.324218 30.203125-3.265626.414063-.8125 9.382812 23.671876-19.589844v-2.859375l2.445312 2.039063 18.371094-14.691406s1.21875 1.632812.8125 1.632812-16.324219 14.691406-16.324219 14.691406l-.40625 1.632813-2.859375 2.453125-1.632812-1.226563-22.039063 19.589844h-3.265625l-12.242188 12.246094c-3.160156.277343-5.898437.609375-8.574218 2.449219zm0 0" fill-rule="evenodd"/></g></svg>

<?xml version="1.0" encoding="UTF-8"?>
<svg xmlns="http://www.w3.org/2000/svg" xmlns:xlink="http://www.w3.org/1999/xlink" viewBox="0 0 1000 667" version="1.1">
<defs>
<clipPath id="clip1">
  <path d="M 0 0 L 1000 0 L 1000 666.71875 L 0 666.71875 Z M 0 0 "/>
</clipPath>
<clipPath id="clip2">
  <path d="M 0 437 L 1000 437 L 1000 666.71875 L 0 666.71875 Z M 0 437 "/>
</clipPath>
<clipPath id="clip3">
  <path d="M 0 458 L 1000 458 L 1000 666.71875 L 0 666.71875 Z M 0 458 "/>
</clipPath>
<clipPath id="clip4">
  <path d="M 0 0 L 438 0 L 438 666.71875 L 0 666.71875 Z M 0 0 "/>
</clipPath>
</defs>
<g id="surface820">
<g clip-path="url(#clip1)" clip-rule="nonzero">
<path style=" stroke:none;fill-rule:evenodd;fill:rgb(0%,0%,0%);fill-opacity:1;" d="M 0 666.667969 L 0 0 L 1000 0 L 1000 666.667969 Z M 0 666.667969 "/>
</g>
<path style=" stroke:none;fill-rule:evenodd;fill:rgb(99.998474%,99.998474%,99.998474%);fill-opacity:1;" d="M 0 0 L 1000 0 L 1000 229.167969 L 0 229.167969 Z M 0 0 "/>
<path style=" stroke:none;fill-rule:evenodd;fill:rgb(0%,44.313049%,40.783691%);fill-opacity:1;" d="M 0 0 L 1000 0 L 1000 208.332031 L 0 208.332031 Z M 0 0 "/>
<g clip-path="url(#clip2)" clip-rule="nonzero">
<path style=" stroke:none;fill-rule:evenodd;fill:rgb(99.998474%,99.998474%,99.998474%);fill-opacity:1;" d="M 0 437.222656 L 1000 437.222656 L 1000 666.667969 L 0 666.667969 Z M 0 437.222656 "/>
</g>
<g clip-path="url(#clip3)" clip-rule="nonzero">
<path style=" stroke:none;fill-rule:evenodd;fill:rgb(98.822021%,88.233948%,0%);fill-opacity:1;" d="M 0 458.332031 L 1000 458.332031 L 1000 666.667969 L 0 666.667969 Z M 0 458.332031 "/>
</g>
<g clip-path="url(#clip4)" clip-rule="nonzero">
<path style=" stroke:none;fill-rule:evenodd;fill:rgb(82.351685%,6.274414%,20.391846%);fill-opacity:1;" d="M 0 0 L 0 666.667969 L 437.5 333.332031 Z M 0 0 "/>
</g>
<path style=" stroke:none;fill-rule:evenodd;fill:rgb(98.822021%,88.233948%,0%);fill-opacity:1;" d="M 227.078125 458.316406 L 145.796875 398.808594 L 64.621094 458.332031 L 96.105469 362.640625 L 14.402344 303.835938 L 115.140625 304.203125 L 145.820312 208.332031 L 176.601562 304.253906 L 277.261719 303.808594 L 195.546875 362.722656 Z M 227.078125 458.316406 "/>
<path style="fill-rule:evenodd;fill:rgb(99.998474%,99.998474%,99.998474%);fill-opacity:1;stroke-width:1.74961;stroke-linecap:butt;stroke-linejoin:miter;stroke:rgb(0%,0%,0%);stroke-opacity:1;stroke-miterlimit:4;" d="M 75.25 391.585938 L 133.804688 391.585938 C 138.515625 396.871094 149.027344 399.027344 159.039062 391.523438 C 177.394531 381.472656 212.894531 391.585938 212.894531 391.585938 L 219.890625 384.160156 L 202.84375 328.222656 L 196.730469 321.667969 C 196.730469 321.667969 183.621094 313.808594 158.710938 316.429688 C 133.804688 319.046875 125.066406 315.554688 125.066406 315.554688 C 125.066406 315.554688 103.214844 318.175781 97.097656 321.234375 C 96.425781 321.777344 90.105469 328.222656 90.105469 328.222656 Z M 75.25 391.585938 "/>
<path style="fill:none;stroke-width:1.74961;stroke-linecap:butt;stroke-linejoin:miter;stroke:rgb(0%,0%,0%);stroke-opacity:1;stroke-miterlimit:4;" d="M 87.050781 377.164062 C 87.050781 377.164062 142.980469 370.175781 159.148438 391.585938 C 150.015625 397.835938 141.976562 398.351562 133.367188 392.023438 C 134.738281 389.742188 153.464844 370.175781 201.097656 376.730469 "/>
<path style=" stroke:none;fill-rule:evenodd;fill:rgb(0%,0%,0%);fill-opacity:1;" d="M 146.914062 321.234375 L 146.472656 382.84375 Z M 196.730469 322.109375 L 207.214844 371.050781 Z M 97.671875 321.335938 L 91.855469 346.578125 Z M 97.671875 321.335938 "/>
<path style="fill:none;stroke-width:1.74961;stroke-linecap:butt;stroke-linejoin:miter;stroke:rgb(0%,0%,0%);stroke-opacity:1;stroke-miterlimit:4;" d="M 146.914062 321.234375 L 146.472656 382.84375 "/>
<path style="fill:none;stroke-width:1.74961;stroke-linecap:butt;stroke-linejoin:miter;stroke:rgb(0%,0%,0%);stroke-opacity:1;stroke-miterlimit:4;" d="M 196.730469 322.109375 L 207.214844 371.050781 "/>
<path style="fill:none;stroke-width:1.74961;stroke-linecap:butt;stroke-linejoin:miter;stroke:rgb(0%,0%,0%);stroke-opacity:1;stroke-miterlimit:4;" d="M 97.671875 321.335938 L 91.855469 346.578125 "/>
<path style="fill-rule:evenodd;fill:rgb(0%,0%,0%);fill-opacity:1;stroke-width:1.74961;stroke-linecap:butt;stroke-linejoin:miter;stroke:rgb(0%,0%,0%);stroke-opacity:1;stroke-miterlimit:4;" d="M 37.21875 398.296875 L 50.988281 414.441406 C 52.605469 415.402344 54.042969 415.34375 55.480469 414.441406 L 75.882812 389.953125 L 84.457031 379.339844 C 85.785156 377.765625 86.207031 376.015625 86.089844 374.441406 L 102.480469 359.878906 C 103.820312 359.972656 104.617188 360.125 105.957031 360.214844 C 104.371094 359.804688 103.210938 359.035156 104.460938 357.296875 L 108.132812 354.441406 L 110.984375 358.117188 C 110.984375 358.117188 106.90625 363.421875 106.5 363.421875 L 102.007812 363.421875 L 93.433594 371.175781 L 97.183594 374.492188 L 102.828125 389.953125 L 109.765625 385.054688 L 105.273438 369.132812 L 115.070312 358.523438 L 111.398438 352.808594 L 113.847656 349.542969 C 113.847656 349.542969 147.75 370.886719 160.8125 365.175781 C 161.164062 365.300781 161.601562 349.953125 161.601562 349.953125 C 161.601562 349.953125 126.496094 346.277344 125.683594 339.339844 C 124.863281 332.398438 133.4375 331.585938 133.4375 331.585938 L 129.765625 326.28125 L 130.582031 323.421875 L 136.703125 331.171875 L 150.582031 319.335938 L 232.210938 412.398438 C 236.667969 410.589844 237.621094 409.5 237.929688 405.050781 C 237.816406 404.941406 157.925781 313.214844 157.925781 313.214844 L 164.050781 306.683594 C 165.253906 305.328125 165.679688 304.746094 165.683594 302.605469 L 175.070312 294.4375 C 177.890625 295.410156 179.691406 297.101562 181.191406 299.335938 L 207 277.460938 C 207.683594 278.148438 209.75 278.824219 211.148438 278.058594 L 253.820312 237.105469 L 207.3125 269.949219 L 205.679688 268.726562 C 205.679688 267.367188 207.367188 267.03125 205.679688 264.644531 C 203.875 262.476562 201.191406 266.6875 200.785156 266.6875 C 200.375 266.6875 194.054688 264.453125 192.671875 261.621094 L 192.214844 269.132812 L 180.375 280.152344 L 171.398438 279.746094 L 158.332031 292.398438 L 156.707031 297.296875 L 158.746094 301.378906 C 158.746094 301.378906 151.808594 307.503906 151.808594 307.097656 C 151.808594 306.683594 150.402344 305.289062 150.339844 305.109375 L 156.292969 299.746094 L 157.113281 296.070312 L 155.125 292.972656 C 154.523438 293.410156 146.90625 301.378906 146.5 300.5625 C 145.816406 299.796875 124.457031 275.667969 124.457031 275.667969 L 125.683594 271.175781 L 111.804688 256.078125 C 106.75 254.328125 98.746094 254.03125 97.113281 265.054688 C 95.839844 267.644531 85.273438 265.460938 85.273438 265.460938 L 79.5625 266.6875 L 47.3125 312.402344 L 65.273438 334.035156 L 102.007812 287.5 L 103.097656 274.320312 L 110.808594 282.9375 C 113.378906 283.269531 115.828125 283.296875 118.152344 282.125 L 139.917969 306.414062 L 136.296875 309.949219 C 137.523438 311.3125 138.363281 312.179688 139.589844 313.542969 C 140.808594 312.722656 141.980469 311.746094 143.207031 310.925781 C 143.613281 311.476562 144.292969 312.503906 144.707031 313.054688 C 142.875 314.046875 141.601562 315.363281 139.773438 316.355469 C 136.859375 314.457031 134.039062 312.085938 134.253906 308.316406 L 122.011719 318.523438 L 121.597656 320.5625 L 85.273438 350.765625 L 82.007812 351.179688 L 81.195312 360.5625 L 104.867188 340.972656 L 104.867188 338.113281 L 107.3125 340.152344 L 125.683594 325.460938 C 125.683594 325.460938 126.902344 327.09375 126.496094 327.09375 C 126.089844 327.09375 110.171875 341.785156 110.171875 341.785156 L 109.765625 343.417969 L 106.90625 345.871094 L 105.273438 344.644531 L 83.234375 364.234375 L 79.96875 364.234375 L 67.726562 376.480469 C 64.566406 376.757812 61.828125 377.089844 59.152344 378.929688 Z M 37.21875 398.296875 "/>
</g>
</svg>
